X: 1
T: Il est n\'e, le divin enfant
R: Christmas
O: French Canadian
Q: 100
Z: R. Stein, Dec. 24, 2007
Q: "Mod\'er\'e"
M: 4/4
L: 1/8
K: G
% - - - - - - - - - -
[|\
"G"D2G2 G2BG | "Em"D2G2 "G"G4 | G2GA "Em"B2cB | "Am"A2G2 "D7"A2{F}[A2D2] ||
"G"D2G2 G2BG | "Em"D2G2 "G"G4 | G2GA "Em"B2cB | "D7"A2d2 "G"G4 H|]
[|\
"G"B2c2 d2cB | "C"c2e2 "G"d4 | B2c2 "Bm"d2ed |  "C"c2B2 "D7"B2A2 ||
"G"B2c2 d2cB | "C"c2e2 "G"d4 | B2c2 "Bm"d2ed | "Am"c2B2 "D7"A4"d.C."y|]
